img/qr/bkpm.svg

<svg width="180" height="180" viewBox="-1 -1 27 27" xmlns="http://www.w3.org/2000/svg" shape-rendering="crispEdges"><path fill="#FFF" d="M-1-1h27v27H-1z"/><path fill-rule="evenodd" d="M8 0h1v2h1v1h1v4h1v1h-1v1h-1V6H9v1H8V5h1V4H8zm5 0h4v5h-3V4h2V3h-1V2h1V1h-2v1h-1v3h-1V2h-1V1h2zm-1 6h1v1h-1zm2 0h1v1h-1zm2 0h1v1h-1zm-3 1h1v2h1V8h1v3h-1v-1h-2V9h-1V8h1zM0 8h2v2H0zm4 0h3v1H4zm15 0h1v1h-1zm2 0h4v1h-1v1h-1V9h-1v1h1v1h1v1h1v1h-1v1h-1v-1h-2v-1h1v-1h-2V9h1zM3 9h1v1H3zm4 0h2v1H7zm-5 1h1v1H2zm3 0h2v1H5zm4 0h2v1h-1v1H9zm8 0h2v2h1v1h-2v3h1v-2h1v-1h1v1h2v1h1v1h-1v1h-2v2h4v3h-1v2h1v1h-3v-1h-3v1h-2v-1h1v-1h-1v-1h-1v-6h1v-2h-1v1h-2v2h1v1h-2v-1h-1v-1h1v-1h-1v1h-1v-1h-1v1h1v2h-1v-1H9v-1H8v1H4v-1h3v-1h2v-1h1v-1h1v1h1v-1h1v1h2v-1h-2v-1h1v-1h1v1h1v1h1v-1h1v-1h-1zm4 5h1v1h-1zm-4 2h3v3h-3zm6 3h1v1h-1zm-3 1h2v1h-1v1h-2v-1h1zm2 1h1v1h-1zM1 11h1v1H1zm3 0h1v1h4v2H8v-1H6v1h1v1H5v-1H4v1H3v-2h1zm8 0h1v1h-1zM2 12h1v1H2zm9 0h1v1h-1zM0 13h1v1H0zm2 2h1v1H2zm-2 1h2v1H0zm8 1h1v1H8zm1 1h1v1H9zm9 0h1v1h-1zM8 19h1v2H8zm4 0h1v1h-1zm2 0h1v2h-2v-1h1zm-3 1h1v1h-1zm-2 1h1v1h2v-1h1v1h2v1h-1v2h-2v-1h1v-1h-1v1h-1v-1h-1v2H8v-2h1zm6 2h1v1h-1z"/><path d="M0 0h7v7H0V0zm1 1h5v5H1V1zm1 1h3v3H2V2zm16-2h7v7h-7V0zm1 1h5v5h-5V1zm1 1h3v3h-3V2zM0 18h7v7H0v-7zm1 1h5v5H1v-5zm1 1h3v3H2v-3z" fill-rule="evenodd"/></svg>

<svg width="180" height="180" viewBox="-1 -1 27 27" xmlns="http://www.w3.org/2000/svg" xmlns:xlink="http://www.w3.org/1999/xlink" shape-rendering="crispEdges" id="qr code"><rect id="qr background" fill-opacity="1" fill="rgb(255, 255, 255)" x="-1" y="-1" width="27" height="27"></rect><path fill-opacity="1" fill="rgb(0, 0, 0)" id="qr dark pixels" fill-rule="evenodd" d="M 8 0 L 9 0 L 9 2 L 10 2 L 10 3 L 11 3 L 11 7 L 12 7 L 12 8 L 11 8 L 11 9 L 10 9 L 10 6 L 9 6 L 9 7 L 8 7 L 8 5 L 9 5 L 9 4 L 8 4 z M 13 0 L 17 0 L 17 5 L 14 5 L 14 4 L 16 4 L 16 3 L 15 3 L 15 2 L 16 2 L 16 1 L 14 1 L 14 2 L 13 2 L 13 5 L 12 5 L 12 2 L 11 2 L 11 1 L 13 1 z M 12 6 L 13 6 L 13 7 L 12 7 z M 14 6 L 15 6 L 15 7 L 14 7 z M 16 6 L 17 6 L 17 7 L 16 7 z M 13 7 L 14 7 L 14 9 L 15 9 L 15 8 L 16 8 L 16 11 L 15 11 L 15 10 L 13 10 L 13 9 L 12 9 L 12 8 L 13 8 z M 0 8 L 2 8 L 2 10 L 0 10 z M 4 8 L 7 8 L 7 9 L 4 9 z M 19 8 L 20 8 L 20 9 L 19 9 z M 21 8 L 25 8 L 25 9 L 24 9 L 24 10 L 23 10 L 23 9 L 22 9 L 22 10 L 23 10 L 23 11 L 24 11 L 24 12 L 25 12 L 25 13 L 24 13 L 24 14 L 23 14 L 23 13 L 21 13 L 21 12 L 22 12 L 22 11 L 20 11 L 20 9 L 21 9 z M 3 9 L 4 9 L 4 10 L 3 10 z M 7 9 L 9 9 L 9 10 L 7 10 z M 2 10 L 3 10 L 3 11 L 2 11 z M 5 10 L 7 10 L 7 11 L 5 11 z M 9 10 L 11 10 L 11 11 L 10 11 L 10 12 L 9 12 z M 17 10 L 19 10 L 19 12 L 20 12 L 20 13 L 18 13 L 18 16 L 19 16 L 19 14 L 20 14 L 20 13 L 21 13 L 21 14 L 23 14 L 23 15 L 24 15 L 24 16 L 23 16 L 23 17 L 21 17 L 21 19 L 25 19 L 25 22 L 24 22 L 24 24 L 25 24 L 25 25 L 22 25 L 22 24 L 19 24 L 19 25 L 17 25 L 17 24 L 18 24 L 18 23 L 17 23 L 17 22 L 16 22 L 16 16 L 17 16 L 17 14 L 16 14 L 16 15 L 14 15 L 14 17 L 15 17 L 15 18 L 13 18 L 13 17 L 12 17 L 12 16 L 13 16 L 13 15 L 12 15 L 12 16 L 11 16 L 11 15 L 10 15 L 10 16 L 11 16 L 11 18 L 10 18 L 10 17 L 9 17 L 9 16 L 8 16 L 8 17 L 4 17 L 4 16 L 7 16 L 7 15 L 9 15 L 9 14 L 10 14 L 10 13 L 11 13 L 11 14 L 12 14 L 12 13 L 13 13 L 13 14 L 15 14 L 15 13 L 13 13 L 13 12 L 14 12 L 14 11 L 15 11 L 15 12 L 16 12 L 16 13 L 17 13 L 17 12 L 18 12 L 18 11 L 17 11 zM 21 15 L 22 15 L 22 16 L 21 16 z M 17 17 L 20 17 L 20 20 L 17 20 z M 23 20 L 24 20 L 24 21 L 23 21 z M 20 21 L 22 21 L 22 22 L 21 22 L 21 23 L 19 23 L 19 22 L 20 22 z M 22 22 L 23 22 L 23 23 L 22 23 z M 1 11 L 2 11 L 2 12 L 1 12 z M 4 11 L 5 11 L 5 12 L 9 12 L 9 14 L 8 14 L 8 13 L 6 13 L 6 14 L 7 14 L 7 15 L 5 15 L 5 14 L 4 14 L 4 15 L 3 15 L 3 13 L 4 13 z M 12 11 L 13 11 L 13 12 L 12 12 z M 2 12 L 3 12 L 3 13 L 2 13 z M 11 12 L 12 12 L 12 13 L 11 13 z M 0 13 L 1 13 L 1 14 L 0 14 z M 2 15 L 3 15 L 3 16 L 2 16 z M 0 16 L 2 16 L 2 17 L 0 17 z M 8 17 L 9 17 L 9 18 L 8 18 z M 9 18 L 10 18 L 10 19 L 9 19 z M 18 18 L 19 18 L 19 19 L 18 19 z M 8 19 L 9 19 L 9 21 L 8 21 z M 12 19 L 13 19 L 13 20 L 12 20 z M 14 19 L 15 19 L 15 21 L 13 21 L 13 20 L 14 20 z M 11 20 L 12 20 L 12 21 L 11 21 z M 9 21 L 10 21 L 10 22 L 12 22 L 12 21 L 13 21 L 13 22 L 15 22 L 15 23 L 14 23 L 14 25 L 12 25 L 12 24 L 13 24 L 13 23 L 12 23 L 12 24 L 11 24 L 11 23 L 10 23 L 10 25 L 8 25 L 8 23 L 9 23 z M 15 23 L 16 23 L 16 24 L 15 24 z"></path><path id="qr squares" d="M0,0h7h0v0v7v0h0h-7h0v0v-7v0h0zM1,1h5h0v0v5v0h0h-5h0v0v-5v0h0zM2,2h3h0v0v3v0h0h-3h0v0v-3v0h0z M18,0h7h0v0v7v0h0h-7h0v0v-7v0h0zM19,1h5h0v0v5v0h0h-5h0v0v-5v0h0zM20,2h3h0v0v3v0h0h-3h0v0v-3v0h0z M0,18h7h0v0v7v0h0h-7h0v0v-7v0h0zM1,19h5h0v0v5v0h0h-5h0v0v-5v0h0zM2,20h3h0v0v3v0h0h-3h0v0v-3v0h0z" fill-rule="evenodd" fill-opacity="1" fill="rgb(0, 0, 0)"></path></svg>
